modules/stroke-7/icons/musiclist.svg

<?xml version="1.0" encoding="utf-8"?>
<!-- Generated by IcoMoon.io -->
<!DOCTYPE svg PUBLIC "-//W3C//DTD SVG 1.1//EN" "http://www.w3.org/Graphics/SVG/1.1/DTD/svg11.dtd">
<svg version="1.1" xmlns="http://www.w3.org/2000/svg" xmlns:xlink="http://www.w3.org/1999/xlink" width="32" height="32" viewBox="0 0 32 32">
<g id="icomoon-ignore">
</g>
<path d="M2.672 8.537h13.861v1.066h-13.861v-1.066z" fill="#000000"></path>
<path d="M2.672 13.335h13.861v1.066h-13.861v-1.066z" fill="#000000"></path>
<path d="M2.672 18.133h13.861v1.066h-13.861v-1.066z" fill="#000000"></path>
<path d="M21.864 9.174l7.464 0.962c0-5.331-4.265-6.397-8.53-7.465v20.26c-0.638 0-1.654 0-3.285 0-3.134 0-4.179 1.658-4.179 3.173 0 1.285 0.962 3.225 4.265 3.225 4.723 0 4.265-3.792 4.265-6.398v-13.757zM28.166 8.911l-6.302-0.812v-4.051c3.543 0.96 5.819 2.013 6.302 4.863zM20.017 27.529c-0.48 0.487-1.294 0.734-2.418 0.734-3.045 0-3.199-1.798-3.199-2.159 0-1.339 1.134-2.107 3.112-2.107h3.285v0.819h0.003c-0.032 1.074-0.184 2.105-0.784 2.712z" fill="#000000"></path>
</svg>

<svg xmlns="http://www.w3.org/2000/svg" width="32" height="32" viewBox="0 0 32 32"><path d="M2.672 8.537h13.861v1.066H2.672V8.537zM2.672 13.335h13.861v1.066H2.672v-1.066zM2.672 18.133h13.861v1.066H2.672v-1.066z"/><path d="M21.864 9.174l7.464.962c0-5.331-4.265-6.397-8.53-7.465v20.26h-3.285c-3.134 0-4.179 1.658-4.179 3.173 0 1.285.962 3.225 4.265 3.225 4.723 0 4.265-3.792 4.265-6.398V9.174zm6.302-.263l-6.302-.812V4.048c3.543.96 5.819 2.013 6.302 4.863zm-8.149 18.618c-.48.487-1.294.734-2.418.734-3.045 0-3.199-1.798-3.199-2.159 0-1.339 1.134-2.107 3.112-2.107h3.285v.819h.003c-.032 1.074-.184 2.105-.784 2.712z"/></svg>
